-----BEGIN PGP SIGNATURE-----

iQJTBAABCgA9FiEEIrTkQub3mlN1PAgFk8a5cP6bZbEFAmnMPtEfHGdsaGV6QHVz
ZXJzLm5vcmVwbHkuZ2l0aHViLmNvbQAKCRCTxrlw/ptlsaqkEADYOWF4t/dOtFwH
EE9LgmH1o4aL/wx4z5jQqKFRtPqNsyOlCmfJDwAGq79x93mYhB8Gw/z6IBCzGQfR
ws4xouJvtkcL1Pgxde7Y4kzh6z/u4/uAGL9+TbTzBpoKNaYjQL++dIE/Jn+iMjL3
a/bQtH68kVjkiK+zMPcLqGEuGs9UrdEYvuU3a+wH+4hp4Bfzlotu3yvSvyAxnoUb
0JZqEW692BgAbA7jAqUYvltFWb0NW3+rCDShEo2u50kV3OVQ7sIjuafypjArFE+D
PsfwdXMJohJaQ4nPdE6fcFmO/CzGjTVq4da6c3kIF1riQsAhf8JGfY5Moc1l9jy/
pxNcdculu9Nfvlo4jlsm9h8p7wI+GIXp0F9USy/ZGIaPmej6Im4BLcgL14zTFJdT
lOBnIVw7wtVBj4hoz2G3xi+xPm2g1+diB0Yukk6BcBPGuyW2EZRVMNVRiuP/eAfm
LBRNMVnw/nS4ys4uBLgrkltAEtCfY/XNbRnETeMqikE0UXVYG4movIGS1YUXWk2Q
L14w90BtQ+0gnn2/oL6niXuCx5BMYZ9/tFtG3t+m8h9MJNekqB7aaOa6Ubj1C8x0
0y6BzQgDskqSAG6Lj/RIiCKUCu2Owtna5j/wQVApr/tY9PRPpqECnUQdFY5ah3m+
c10g/ze+3WYwYooPEOpPA7wZ10BKHw==
=xcbb
-----END PGP SIGNATURE-----
