-----BEGIN PGP SIGNATURE-----

iQJTBAABCgA9FiEEIrTkQub3mlN1PAgFk8a5cP6bZbEFAmqfE+EfHGdsaGV6QHVz
ZXJzLm5vcmVwbHkuZ2l0aHViLmNvbQAKCRCTxrlw/ptlsRsXD/sFrv3Vlyrd+kek
yu0EOpSKQoZa+qtHg6H3++Y4IDY5TLK8jP5xVRbebRaxvZh6eKeLZwxM0IkHQ+K/
l7wW/rligHAxoOiLHEKIFHENvwVEwup3TnnSS+6h7omtiuS4hzyQOtAuJo+oDvdH
35EB4ruWzKgJFolZYFeUseIQOkS/hw8b7zJ4g2YzOzb7RQktrV5Tr19jVOGy6zgH
Cf5JxZVREQYPwvoQvaA1PsXdtJG+k1PrexoRU8nf94eBBmxPcQ9/pmrn/DVGKzDJ
QVMxiY8w+yV03mguBc+4MXbfN3Ayhl/flJtxViFFdrDZ42kGANAWEZYa+0jEapmD
lYVNzmNoJFXc/d01WygifFXgelTodoixF49ArlV5oCeoB5dqO6TeNWp2eqmueqlr
Z/G/XtetSxs6xPmi9EkQ8kFoNSCYF1XzHekFqzgZm+O7/eij49ONRUESanZblZLz
D3vY1HuO+iMqVYu4n1+zdC8VLuNhCjpDUf3blL14UyrGI0oVNFbEA9B+qSjQAMlz
en4JKt9H0tfvaBNmLaWyOWIYciCEvU1jkErklxqEi5+9mXp8bVLVLrwvg06hCVXl
sHz/OUzUL138mzOn8O6N9SPg4FSzKsCXL9/pWCoXuASvlh0lf2RWKCP+SdOcHn8H
4GJt8YTRTqX/zcRf1SjwCRbvVc6qqA==
=HXvP
-----END PGP SIGNATURE-----
